assets/icons/star-fill-24.svg

<svg width="24" height="24" viewBox="0 0 24 24" fill="none" xmlns="http://www.w3.org/2000/svg">
<path d="M9.77103 22C9.36971 22 9.23593 21.8642 8.96838 21.5926C7.09553 19.2838 6.82797 16.8393 6.6942 16.1602C6.29287 16.0244 5.49022 15.617 5.35645 15.4812C4.68757 15.0738 3.48359 14.3947 2.27961 13.4441C2.01206 13.1724 1.87829 12.6292 2.14584 12.2218C3.48359 9.77722 5.624 8.55494 6.42665 8.01171L6.56042 7.8759C6.6942 7.06104 6.96175 4.7523 8.16573 2.44355C8.2995 2.17193 8.83461 1.90031 9.23593 2.03612C11.6439 2.85098 13.5167 4.20906 14.0518 4.7523H14.1856C14.9883 4.48068 17.3962 3.80164 20.0717 4.61649C20.4731 4.7523 20.8744 5.15972 20.7406 5.70296C20.3393 8.14751 19.8042 10.1846 19.5366 10.8637V10.9995C20.0717 11.6785 21.2757 13.3082 21.9446 15.8886C22.0784 16.1602 21.9446 16.4318 21.8108 16.7035C21.677 16.9751 21.4095 17.1109 21.1419 17.1109C18.6002 17.3825 15.5234 17.3825 14.7207 17.3825C14.0518 18.3332 12.5803 19.9629 10.4399 21.7284C10.3061 21.8642 10.0386 22 9.77103 22Z" fill="#F2F2F2"/>
</svg>

<svg xmlns="http://www.w3.org/2000/svg" width="24" height="24" viewBox="0 0 24 24"><path d="M9.771 22c-.401 0-.535-.136-.803-.407-1.872-2.31-2.14-4.754-2.274-5.433-.401-.136-1.204-.543-1.338-.679-.668-.407-1.872-1.086-3.076-2.037-.268-.272-.402-.815-.134-1.222 1.338-2.445 3.478-3.667 4.28-4.21l.134-.136c.134-.815.402-3.124 1.606-5.432.133-.272.669-.544 1.07-.408 2.408.815 4.28 2.173 4.816 2.716h.134c.802-.271 3.21-.95 5.886-.136.401.136.802.544.669 1.087-.402 2.445-.937 4.482-1.204 5.16V11c.535.68 1.739 2.31 2.408 4.89.133.271 0 .543-.134.814a.734.734 0 01-.67.408c-2.54.271-5.618.271-6.42.271-.67.951-2.14 2.58-4.281 4.346a1.014 1.014 0 01-.67.271z"/></svg>
